X:1
T:Lascia ch'io pianga
T:da "Rinaldo"
T:Georg Friedrich Händel
%%score 1 { ( 2 4 ) | ( 3 5 ) }
L:1/8
Q:1/4=60
M:3/4
K:D
V:1 treble nm="Flauto"
V:2 treble nm="Violino"
V:4 treble 
V:3 bass 
V:5 bass 
V:1
"^ARIA    Larghetto"!p! F2 F2 z F | G2 G2 z2 | E2 A3 G | G2 F2 z2 | B2 B2 (3(cd)e | A2 A2 z d | %6
w: La- scia ch'io|pian- ga|mia cru- da|sor- te|e che so- * *|spi- ri la|
 (FE) F2 (ED) | D6 | F2 !^!d3 B | (^GF) E2 z2 | B2 !^!e3 c | (A^G) A2 z!f! d | (cB c2) (BA) | A6 | %14
w: li- * * ber- *|tà|e che so-|spi- * ri|e che so-|spi- * ri la|li- * * ber- *|tà|
!p! F2 F2 z B | G2 G2 z2 | (E2 A3) G | GF F2 z2 |!p! B2 B2 (3(cde) | A2 A2 z!f! d | (FE) F2 (ED) | %21
w: La- scia ch'io|pian- ga|mia cru- da|sor- * te|e che so- * *|spi- ri la|li- * * ber- *|
 D6 | z6 | z6 | z6 | z6 | z6 | z6 | z6 | z6 ||!f! F2 B3 c | (^A^G) F2 z2 | F2 B3 c | (dc) d2 z2 | %34
w: tà|||||||||Il duol in-|fran- * ga|que- ste ri-|tor- * te|
!p! d2 (ed) (cB) | (e^G) A2 z G | (AB) TB3 A/B/ | (c^E) F4 |!f! (dc) (BA) (^GF) | c2 ^E2 z B | %40
w: de' mie- i mar- *|ti- * ri sol|per * pie- * *|tà * *|de' * mie- i mar- *|ti- ri sol|
 (A^G) (TG3 F/)G/ | F4 z2!D.C.! |] %42
w: per * pie- * *|tà|
V:2
 [DF]2 [DF]2 z [DF] | [B,DG]2 [B,DG]2 z2 | [CE]2 [CEA]3 [CEG] | [A,D]4 z2 | [DGB]2 [EGB]2 z2 | %5
 [CEA]2 [DFA]2 z [A,DA] | (FE) [A,DF]2 [A,C]2 | [A,D]6 | F2 d3 B | [B,D^G]2 [B,EG]2 z2 | B2 e3 c | %11
 [CEA]2 [DFA]2 z [Fd] | (cB) c2 (BA) |!>(! [CEA]6!>)! | [DF]2 [DF]2 z [DF] | [B,DG]2 [B,DG]2 z2 | %16
 [CE]2 [CEA]3 [CEG] | [A,D]2 [A,D]2 z2 |!p! [DGB]2 [EGB]2 z2 | [CEA]2 [DFA]2 z [A,DA] | %20
 (FE) [A,DF]2 [A,C]2 | [A,D]6 |!f! [DF]2 [DF]2 z [DF] | [B,DG]2 [B,DG]2 z2 | [CE]2 [CEA]3 [CEG] | %25
 [A,D]2 [A,D]2 z2 | [DGB]2 [EGB]2 (cd/e/) | [CEA]2 [DFA]2 z [Dd] | (FE) F2 (ED) | %29
 !fermata!D2- D4 ||!f! [DF]2 [FB]3 [Gc] | [CF^A]2 [^A,CF]2 z2 | [DF]2 [DB]3 [EGc] | %33
 [DFd]2 [DFd]2 z2 | [B,E^G]4 [^G,B,E]2 | [^G,CE]2 [A,C]2 z2 | [DF]2 [DF]2 [B,E]2 | %37
 [CE][B,^E] [A,F]2 z2 | [DF]2 [DF]2 z2 | [CFc]2 [B,C^E]2 z [C^GB] | [CFA][DF^G] [CG]4 | %41
 [A,F]2 z4 |] %42
V:3
!p! D,2 D,2 z D, | E,2 E,2 z2 | A,,2 A,,2 z A,, | (D,2- D,C, B,,A,,) | G,,2 G,2 z2 | %5
 G,2 F,2 z F,, | G,,2 A,,2 [A,,G,]2 | [D,F,]6 | D,2 B,,3 D, | E,2 E,,2 z2 | E,2 C,3 E, | %11
 F,2 D,2 z!f! D, | E,2 E,,4 | A,,2 (A,=G,) F,E, |!p! D,2 D,2 z D, | E,2 E,2 z2 | A,,2 A,,2 z A,, | %17
 (D,2- D,C, B,,A,,) | G,,2 G,2 z2 | G,2 F,2 z!f! F,, | G,,2 A,,2 [A,,G,]2 | [D,F,]6 | %22
 D,2 D,2 z D, | E,2 E,2 z2 | A,,2 A,,3 A,, | (D,2- D,C, B,,A,,) | G,,2 G,2 z2 | %27
 [G,,G,]2 [F,,F,]2 z!p! [F,A,] | [G,B,]2 A,2 [A,,G,]2 | !fermata![D,F,]2- [D,F,]4 || B,,2 D,3 E, | %31
 F,2- F,=G, F,E, | D,2 G,2 E,2 | B,2 B,,2 z2 |!p! E,2 D,4 | C,2 F,2 z2 | D,2 B,,2 [E,^G,]2 | %37
 [A,,A,][C,^G,] [D,F,]2 z2 |!f! B,,2 B,2 z2 | A,2 ^G,2 z ^E, | F,B,, C,2 C,,2 | %41
 F,,2 (A,=G, F,E,) |] %42
V:4
 x6 | x6 | x6 | G2 F2 x2 | x6 | x6 | [B,D]2 x4 | x6 | D2 D4 | x6 | ^G2 E4 | x6 | %12
 [EA]2 [EA]2 [D^G]2 | x6 | x6 | x6 | x6 | (GF) F2 x2 | x6 | x6 | [B,D]2 x4 | x6 | x6 | x6 | x6 | %25
 (GF) F2 x2 | x6 | x6 | D2 D2 C2 | x6 || x6 | x6 | x6 | x6 | x6 | x6 | x6 | x6 | x6 | x6 | %40
 x2 F2 ^E2 | x6 |] %42
V:5
 x6 | x6 | x6 | x6 | x6 | x6 | x6 | x6 | x6 | x6 | E,2 ^G,4 | x6 | x6 | x6 | x6 | x6 | x6 | x6 | %18
 x6 | x6 | x6 | x6 | x6 | x6 | x6 | x6 | x6 | x6 | x6 | x6 || x6 | x6 | x6 | x6 | x6 | x6 | x6 | %37
 x6 | x6 | x6 | x6 | x6 |] %42

